exported-svg/mail.svg

<svg height="24" viewBox="0 0 24 24" width="24" xmlns="http://www.w3.org/2000/svg"><path d="m22.0000307 6.49212501c.0000693.00466853.0000733.00933563.0000122.01399985v11.99387514c0 1.3761424-1.1238576 2.5-2.5 2.5h-15.99999997c-1.37614237 0-2.5-1.1238576-2.5-2.5v-11.99387514c-.00006103-.00466422-.00005703-.00933132.00001227-.01399985.00427768-1.37255232 1.12647127-2.49212501 2.49998773-2.49212501h15.99999997c1.3735165 0 2.4957101 1.11957269 2.4999878 2.49212501zm-1.0203834-.23817582c-.1185608-.70825415-.7394742-1.25394919-1.4796044-1.25394919h-15.99999997c-.74013014 0-1.36104356.54569504-1.47960432 1.25394919l9.47960429 6.63572301zm.0203956 1.20637859-9.2132688 6.44928822c-.1721601.120512-.4013023.120512-.5734623 0l-9.21326887-6.44928822v11.03967222c0 .8238576.67614238 1.5 1.5 1.5h15.99999997c.8238577 0 1.5-.6761424 1.5-1.5z"/></svg>

<?xml version="1.0" encoding="UTF-8"?>
<svg width="24px" height="24px" viewBox="0 0 24 24" version="1.1" xmlns="http://www.w3.org/2000/svg" xmlns:xlink="http://www.w3.org/1999/xlink">
    <!-- Generator: Sketch 55.2 (78181) - https://sketchapp.com -->
    <title>mail</title>
    <desc>Created with Sketch.</desc>
    <g id="mail" stroke="none" stroke-width="1" fill="none" fill-rule="evenodd">
        <path d="M22.0000307,6.49212501 C22.0001,6.49679354 22.000104,6.50146064 22.0000429,6.50612486 L22.0000429,18.5 C22.0000429,19.8761424 20.8761853,21 19.5000429,21 L3.50004293,21 C2.12390056,21 1.00004293,19.8761424 1.00004293,18.5 L1.00004293,6.50612486 C0.999981896,6.50146064 0.999985901,6.49679354 1.0000552,6.49212501 C1.00433288,5.11957269 2.12652647,4 3.50004293,4 L19.5000429,4 C20.8735594,4 21.995753,5.11957269 22.0000307,6.49212501 Z M20.9796473,6.25394919 C20.8610865,5.54569504 20.2401731,5 19.5000429,5 L3.50004293,5 C2.75991279,5 2.13899937,5.54569504 2.02043861,6.25394919 L11.5000429,12.8896722 L20.9796473,6.25394919 Z M21.0000429,7.46032778 L11.7867741,13.909616 C11.614614,14.030128 11.3854718,14.030128 11.2133118,13.909616 L2.00004293,7.46032778 L2.00004293,18.5 C2.00004293,19.3238576 2.67618531,20 3.50004293,20 L19.5000429,20 C20.3239006,20 21.0000429,19.3238576 21.0000429,18.5 L21.0000429,7.46032778 Z" id="Combined-Shape" fill="#000000" fill-rule="nonzero"></path>
    </g>
</svg>
